!!!OTL: Hark! The Herald Angels Sing
!!!COM: Mendelssohn, Felix
!!!ODT: 1840
!!!LYR: Wesley, Charles
!!!LAR: Cummings, William
!!!YOR: The Christmas Fake Book
!!!YOY: 1990
!!!AST: Christmas song
!!!YEC: Brian Luke, 2001
**kern	**harm
*k[f#]	*k[f#]
*M4/4	*M4/4
*G:	*G:
*>A	*>A
=1	=1
4d	I
4g	.
4.g	.
8f#	.
=2	=2
4g	.
4b	.
4b	V7
4a	.
=3	=3
4dd	I
4dd	.
4.dd	IV
8cc	.
=4	=4
4b	I
4a	V7
2b	I
*>A'	*>A'
=5	=5
4d	.
4g	.
4.g	.
8f#	.
=6	=6
4g	vi
4b	.
4b	V7/V
4a	.
=7	=7
4dd	V
4a	V7/V
4.a	V
8f#	.
=8	=8
4f#	.
4e	V7/V
2d	V;
*>B	*>B
=9	=9
4dd	I
4dd	.
4dd	.
4g	.
=10	=10
4cc	V7
4b	I
4b	.
4a	V7
=11	=11
4dd	I
4dd	.
4dd	.
4g	.
=12	=12
4cc	V7
4b	I
4b	.
4a	V7
*>C	*>C
=13	=13
4ee	IV
4ee	.
4ee	.
4dd	V7/ii
=14	=14
4cc	ii
4b	V7/ii
2cc	ii
=15	=15
4a	V7
8b	.
8cc	.
4.dd	I
8g	.
=16	=16
4g	.
4a	V7
2b	I
*>C'	*>C'
=17	=17
4.ee	IV
8ee	.
4ee	V7/ii
4dd	.
=18	=18
4cc	ii
4b	V7/ii
2cc	ii
=19	=19
4a	V7
8b	.
8cc	.
4.dd	I
8g	.
=20	=20
4g	.
4a	V7
2g	I;
*-	*-
